public/assets/logo7.svg

<svg width="104" height="33" viewBox="0 0 104 33" fill="none" xmlns="http://www.w3.org/2000/svg">
<g style="mix-blend-mode:multiply">
<circle cx="10.1779" cy="12.4429" r="9.67785" fill="#828282"/>
</g>
<g style="mix-blend-mode:multiply">
<circle cx="18.4733" cy="20.7383" r="9.67785" fill="#A8A8A8"/>
</g>
<path d="M41.7832 23.092C38.0129 23.092 35.064 20.0311 35.064 16.0929C35.064 12.1733 38.0129 9.13104 41.7832 9.13104C45.3107 9.13104 48.0731 11.4828 48.5397 14.917H45.5347C45.2174 12.9946 43.7243 11.6694 41.8205 11.6694C39.5248 11.6694 37.9756 13.4799 37.9756 16.0929C37.9756 18.7246 39.5248 20.5537 41.8205 20.5537C43.7243 20.5537 45.1988 19.2098 45.5347 17.2874H48.5397C48.0731 20.759 45.3107 23.092 41.7832 23.092Z" fill="#0E0E0E"/>
<path d="M55.4853 22.8121V21.5802C54.8321 22.5134 53.8429 22.9987 52.4804 22.9987C50.4086 22.9987 49.0274 21.7855 49.0274 19.9191C49.0274 17.978 50.5952 16.9328 53.5069 16.9328C54.0668 16.9328 54.5521 16.9701 55.168 17.0448V16.4475C55.168 15.3276 54.5334 14.6744 53.4509 14.6744C52.331 14.6744 51.6591 15.3276 51.5658 16.4475H49.2327C49.3821 14.1518 51.0432 12.6586 53.4509 12.6586C56.0639 12.6586 57.5944 14.0958 57.5944 16.5408V22.8121H55.4853ZM51.4725 19.8444C51.4725 20.6843 52.0697 21.2069 53.0403 21.2069C54.3655 21.2069 55.168 20.479 55.168 19.3218V18.6126C54.5521 18.5193 54.1228 18.4819 53.6749 18.4819C52.2004 18.4819 51.4725 18.9485 51.4725 19.8444Z" fill="#0E0E0E"/>
<path d="M69.0316 17.8287C69.0316 20.7776 67.2958 22.9987 64.6082 22.9987C63.4323 22.9987 62.4244 22.4948 61.6778 21.5242V26.4143H59.0835V12.8453H61.4725V14.3011C62.2378 13.2372 63.339 12.6586 64.6082 12.6586C67.2958 12.6586 69.0316 14.8984 69.0316 17.8287ZM66.3626 17.8287C66.3626 15.9622 65.2987 14.9543 64.0296 14.9543C62.7604 14.9543 61.6965 15.9436 61.6965 17.8287C61.6965 19.7138 62.7604 20.6843 64.0296 20.6843C65.2987 20.6843 66.3626 19.7324 66.3626 17.8287Z" fill="#0E0E0E"/>
<path d="M78.3652 19.6205C78.3652 21.7109 76.7787 22.9987 73.9417 22.9987C71.1047 22.9987 69.5182 21.6362 69.3129 19.4151H71.7953C71.8139 20.4417 72.6912 21.0949 73.979 21.0949C74.9869 21.0949 75.7521 20.7776 75.7521 20.0684C75.7521 19.4338 75.3415 19.1725 74.3896 18.9859L72.5978 18.6499C70.8061 18.3326 69.7235 17.3434 69.7235 15.7942C69.7235 13.9465 71.31 12.6586 73.7924 12.6586C76.2934 12.6586 78.0105 13.9838 78.1972 16.1302H75.7148C75.6215 15.1597 74.8936 14.5624 73.7924 14.5624C72.8405 14.5624 72.2059 14.917 72.2059 15.5516C72.2059 16.1489 72.6165 16.3915 73.5124 16.5595L75.4348 16.9141C77.3759 17.2874 78.3652 18.1833 78.3652 19.6205Z" fill="#0E0E0E"/>
<path d="M85.4557 18.6126V12.8453H88.0314V22.8121H85.661V21.5056C85.1198 22.3828 84.0186 22.9987 82.7494 22.9987C80.7523 22.9987 79.2965 21.7855 79.2965 19.1912V12.8453H81.8908V18.6872C81.8908 20.0871 82.5814 20.703 83.6266 20.703C84.5598 20.703 85.4557 19.9564 85.4557 18.6126Z" fill="#0E0E0E"/>
<path d="M92.2289 22.8121H89.6159V9.41101H92.2289V22.8121Z" fill="#0E0E0E"/>
<path d="M98.1389 22.9801C95.1526 22.9801 93.1555 20.9083 93.1555 17.7913C93.1555 14.8237 95.2273 12.6586 98.1016 12.6586C101.256 12.6586 103.346 15.2156 102.88 18.4633H95.8059C95.9739 20.0871 96.7578 20.983 98.083 20.983C99.2215 20.983 99.9867 20.423 100.285 19.4338H102.861C102.301 21.6922 100.565 22.9801 98.1389 22.9801ZM98.0456 14.5624C96.8324 14.5624 96.0672 15.3463 95.8432 16.8208H100.136C100.061 15.4396 99.2775 14.5624 98.0456 14.5624Z" fill="#0E0E0E"/>
</svg>

<svg xmlns="http://www.w3.org/2000/svg" width="104" height="33" fill="none" viewBox="0 0 104 33"><circle cx="10.178" cy="12.443" r="9.678" fill="#828282" style="mix-blend-mode:multiply"/><circle cx="18.473" cy="20.738" r="9.678" fill="#a8a8a8" style="mix-blend-mode:multiply"/><path fill="#0e0e0e" d="M41.783 23.092c-3.77 0-6.719-3.06-6.719-7 0-3.919 2.949-6.961 6.72-6.961 3.527 0 6.29 2.352 6.756 5.786h-3.005c-.318-1.922-1.81-3.248-3.714-3.248-2.296 0-3.845 1.81-3.845 4.424 0 2.632 1.549 4.46 3.845 4.46 1.903 0 3.378-1.343 3.714-3.266h3.005c-.467 3.472-3.23 5.805-6.757 5.805m13.702-.28V21.58c-.653.933-1.642 1.42-3.005 1.42-2.071 0-3.453-1.213-3.453-3.08 0-1.941 1.568-2.986 4.48-2.986.56 0 1.045.037 1.661.112v-.598c0-1.12-.635-1.773-1.717-1.773-1.12 0-1.792.654-1.885 1.774h-2.333c.15-2.296 1.81-3.79 4.218-3.79 2.613 0 4.143 1.438 4.143 3.883v6.271zm-4.013-2.968c0 .84.598 1.363 1.568 1.363 1.325 0 2.128-.728 2.128-1.885v-.71a9.5 9.5 0 0 0-1.493-.13c-1.475 0-2.203.466-2.203 1.362m17.56-2.015c0 2.949-1.736 5.17-4.424 5.17-1.176 0-2.184-.504-2.93-1.475v4.89h-2.594V12.845h2.388v1.456c.766-1.064 1.867-1.642 3.136-1.642 2.688 0 4.424 2.24 4.424 5.17m-2.67 0c0-1.867-1.063-2.875-2.332-2.875-1.27 0-2.334.99-2.334 2.875s1.064 2.855 2.334 2.855c1.269 0 2.333-.952 2.333-2.855m12.002 1.791c0 2.09-1.586 3.379-4.423 3.379s-4.424-1.363-4.63-3.584h2.483c.019 1.027.896 1.68 2.184 1.68 1.008 0 1.773-.317 1.773-1.027 0-.634-.41-.896-1.362-1.082l-1.792-.336c-1.792-.317-2.874-1.307-2.874-2.856 0-1.848 1.586-3.135 4.068-3.135 2.501 0 4.218 1.325 4.405 3.471h-2.482c-.094-.97-.821-1.568-1.923-1.568-.951 0-1.586.355-1.586.99 0 .597.41.84 1.306 1.008l1.923.354c1.94.373 2.93 1.27 2.93 2.706m7.091-1.007v-5.768h2.575v9.967h-2.37v-1.306c-.541.877-1.642 1.493-2.912 1.493-1.997 0-3.453-1.213-3.453-3.808v-6.346h2.595v5.842c0 1.4.69 2.016 1.736 2.016.933 0 1.829-.747 1.829-2.09m6.773 4.199h-2.613V9.411h2.613zm5.91.168c-2.986 0-4.983-2.072-4.983-5.189 0-2.967 2.071-5.132 4.946-5.132 3.154 0 5.244 2.557 4.778 5.804h-7.074c.168 1.624.952 2.52 2.277 2.52 1.139 0 1.904-.56 2.202-1.55h2.576c-.56 2.26-2.296 3.547-4.722 3.547m-.093-8.418c-1.214 0-1.979.784-2.203 2.259h4.293c-.075-1.381-.858-2.259-2.09-2.259"/></svg>
